X:1
T: Break Down
T: 1st setting
R:Reel
Q: 232
K:A
M:4/4
L:1/8
|:((3efg) |a2A2 AcBA|E2A2 Ac CA|F2B2 Bc BA|GA Bc de fg|
a2A2 AcBA|E2A2 Ac BA|GA Bc de fg|ae ce A2 ((3BAG) |
A2a2 A3B|B2b2 B3A|GA Bc de fg|ae fd cABG|
A2a2 A3B|B2b2 B3A|GA Bc de fg|a2ag a2:|
